src/assets/icons/donate/btc.svg

<svg xmlns="http://www.w3.org/2000/svg" width="100%" height="100%" viewBox="0 0 64 65" fill-rule="nonzero" stroke-linejoin="round" stroke-miterlimit="2" xmlns:v="https://vecta.io/nano"><path d="M63.035 39.742c-4.274 17.143-21.637 27.576-38.782 23.301C7.115 58.769-3.318 41.405.958 24.263S22.593-3.316 39.733.958s27.576 21.64 23.302 38.784z" fill="#f7931a"/><path d="M46.105 27.442c.637-4.258-2.605-6.547-7.038-8.074l1.438-5.768-3.511-.875-1.4 5.616-2.813-.662 1.41-5.653-3.509-.875-1.439 5.766-2.242-.527.004-.018-4.842-1.209-.934 3.75s2.605.597 2.55.634c1.422.355 1.679 1.296 1.636 2.042l-1.638 6.571a2.91 2.91 0 0 1 .365.117l-.371-.092-2.296 9.205c-.174.432-.615 1.08-1.609.834.035.051-2.552-.637-2.552-.637l-1.743 4.019 4.569 1.139 2.503.646-1.453 5.834 3.507.875 1.439-5.772 2.798.726-1.434 5.745 3.511.875 1.453-5.823c5.987 1.133 10.489.676 12.384-4.739 1.527-4.36-.076-6.875-3.226-8.515 2.294-.529 4.022-2.038 4.483-5.155zm-8.022 11.249c-1.085 4.36-8.426 2.003-10.806 1.412l1.928-7.729c2.38.594 10.012 1.77 8.878 6.317zm1.086-11.312c-.99 3.966-7.1 1.951-9.082 1.457l1.748-7.01c1.982.494 8.365 1.416 7.334 5.553z" fill="#fff"/></svg>

<?xml version="1.0" encoding="UTF-8" standalone="no"?>
<!DOCTYPE svg PUBLIC "-//W3C//DTD SVG 1.1//EN" "http://www.w3.org/Graphics/SVG/1.1/DTD/svg11.dtd">
<svg width="100%" height="100%" viewBox="0 0 64 65" version="1.1" xmlns="http://www.w3.org/2000/svg" xmlns:xlink="http://www.w3.org/1999/xlink" xml:space="preserve" xmlns:serif="http://www.serif.com/" style="fill-rule:evenodd;clip-rule:evenodd;stroke-linejoin:round;stroke-miterlimit:2;">
    <g transform="matrix(1,0,0,1,0.00246056,-0.00240433)">
        <path d="M63.033,39.744C58.759,56.887 41.396,67.32 24.251,63.045C7.113,58.771 -3.32,41.407 0.956,24.265C5.228,7.12 22.591,-3.314 39.731,0.96C56.875,5.234 67.307,22.6 63.033,39.744Z" style="fill:rgb(247,147,26);fill-rule:nonzero;"/>
        <path d="M46.103,27.444C46.74,23.186 43.498,20.897 39.065,19.37L40.503,13.602L36.992,12.727L35.592,18.343C34.669,18.113 33.721,17.896 32.779,17.681L34.189,12.028L30.68,11.153L29.241,16.919C28.477,16.745 27.727,16.573 26.999,16.392L27.003,16.374L22.161,15.165L21.227,18.915C21.227,18.915 23.832,19.512 23.777,19.549C25.199,19.904 25.456,20.845 25.413,21.591L23.775,28.162C23.873,28.187 24,28.223 24.14,28.279C24.023,28.25 23.898,28.218 23.769,28.187L21.473,37.392C21.299,37.824 20.858,38.472 19.864,38.226C19.899,38.277 17.312,37.589 17.312,37.589L15.569,41.608L20.138,42.747C20.988,42.96 21.821,43.183 22.641,43.393L21.188,49.227L24.695,50.102L26.134,44.33C27.092,44.59 28.022,44.83 28.932,45.056L27.498,50.801L31.009,51.676L32.462,45.853C38.449,46.986 42.951,46.529 44.846,41.114C46.373,36.754 44.77,34.239 41.62,32.599C43.914,32.07 45.642,30.561 46.103,27.444ZM38.081,38.693C36.996,43.053 29.655,40.696 27.275,40.105L29.203,32.376C31.583,32.97 39.215,34.146 38.081,38.693ZM39.167,27.381C38.177,31.347 32.067,29.332 30.085,28.838L31.833,21.828C33.815,22.322 40.198,23.244 39.167,27.381Z" style="fill:white;fill-rule:nonzero;"/>
    </g>
</svg>
